build-source/logos/franceinfo.default.svg

<?xml version="1.0" encoding="UTF-8" standalone="no"?>
<!-- Created with Inkscape (http://www.inkscape.org/) -->
<svg
   xmlns:svg="http://www.w3.org/2000/svg"
   xmlns="http://www.w3.org/2000/svg"
   version="1.0"
   width="602.36218"
   height="602.36218"
   id="svg2407">
  <defs
     id="defs2409" />
  <g
     id="g2395">
    <path
       d="M 17.716527,584.6513 L 493.20539,584.6513 L 493.20539,109.16248 L 17.716527,109.16248 L 17.716527,584.6513 z"
       id="path5844"
       style="fill:#000000;fill-opacity:1;fill-rule:nonzero;stroke:none" />
    <path
       d="M 109.18842,462.06895 L 88.069273,463.78131 L 88.64006,505.44881 C 88.64006,505.44881 113.78899,506.78432 119.74799,507.16117 C 125.68429,507.52647 131.83723,507.6863 133.73228,514.8668 C 135.78724,522.65223 126.84856,528.28028 123.7435,528.28031 C 133.12713,528.28031 130.96959,528.28029 138.01319,528.28031 C 143.74391,527.22994 150.2508,520.28929 149.42894,510.01511 C 148.34446,496.43024 137.97892,493.17685 126.88283,493.17687 L 130.38998,470.98459 L 109.18842,462.06895 z M 59.529891,501.45329 C 55.728326,506.05386 51.927,513.26849 54.107408,521.14547 C 60.625803,543.15516 95.580838,552.81276 110.32999,553.39497 L 108.61763,527.70952 C 108.61764,527.70953 84.758704,530.70045 72.658007,518.00613 C 67.532334,512.65202 68.514207,507.19553 72.372613,502.30947 C 67.852075,502.11539 62.566372,501.57887 59.529891,501.45329 z"
       id="path5846"
       style="fill:#ffffff;fill-opacity:1;fill-rule:nonzero;stroke:none" />
    <path
       d="M 109.15683,493.1997 L 584.64566,493.1997 L 584.64566,17.71088 L 109.15683,17.71088 L 109.15683,493.1997 z"
       id="path5850"
       style="fill:#fff200;fill-opacity:1;fill-rule:nonzero;stroke:none" />
    <path
       d="M 400.29011,262.57867 C 384.1939,262.57867 367.00187,268.84603 357.76643,282.55623 C 350.30044,293.88066 350.91698,309.66851 350.91698,322.79676 L 333.22256,322.79676 L 333.22256,356.75863 L 350.91698,356.75863 L 350.91698,470.34537 L 394.58223,470.34537 L 394.58223,356.75863 L 421.40925,356.75863 L 421.40925,322.79676 L 394.58223,322.79676 L 394.58223,319.37204 C 394.58223,306.54061 394.83347,297.39672 408.85193,297.39671 C 415.71279,297.39671 418.84071,297.35095 425.40477,298.25289 L 425.40477,264.57642 C 416.1465,262.78426 403.87466,262.57868 400.29011,262.57867 z M 132.01992,262.86406 L 132.01992,305.10235 L 175.68518,305.10235 L 175.68518,262.86406 L 132.01992,262.86406 z M 201.94141,267.14497 C 199.01897,267.14497 195.92521,268.36668 194.23577,270.85509 C 192.88853,272.93287 193.0942,275.88944 193.0942,278.27533 L 189.95487,278.27533 L 189.95487,284.2686 L 193.0942,284.2686 L 193.0942,304.81695 L 201.08522,304.81695 L 201.08522,284.2686 L 205.93692,284.2686 L 205.93692,278.27533 L 201.08522,278.27533 L 201.08522,277.41915 C 201.08522,275.09022 201.10806,273.42361 203.65377,273.42363 C 204.9095,273.42363 205.30914,273.53778 206.50771,273.70903 L 206.50771,267.71576 C 204.81827,267.37328 202.58069,267.14497 201.94141,267.14497 z M 222.48976,276.84836 C 219.01937,276.59721 217.30701,279.62228 216.49649,282.55623 L 216.49649,277.41915 L 209.07625,277.41915 L 209.07625,304.81695 L 217.06728,304.81695 L 217.06728,294.54277 C 217.06728,289.66825 217.84364,284.51975 223.91673,284.83938 L 223.91673,277.13375 L 222.48976,276.84836 z M 238.75721,276.84836 C 232.96933,276.84836 226.43961,278.73196 225.62909,285.41017 L 233.04933,286.26635 C 233.04933,283.57235 235.35541,282.27085 237.90103,282.27084 C 239.09959,282.27084 240.33258,282.48761 241.04036,283.41242 C 241.85088,284.43972 241.89654,285.92387 241.89654,287.12254 L 241.89654,287.69332 C 238.55173,288.0245 234.19091,288.22997 231.05158,289.40569 C 227.40995,290.75286 224.77291,293.61799 224.77291,297.68211 C 224.77291,302.88769 228.44878,305.38772 233.33473,305.38774 C 237.45581,305.38774 239.91038,304.06339 242.18193,300.82144 C 242.13636,302.22558 242.43308,303.40126 242.75272,304.81695 L 250.45836,304.81695 C 250.02465,303.46967 249.88757,302.22557 249.88757,300.82144 L 249.88757,287.97872 C 249.88757,284.65673 250.1273,281.6771 247.31902,279.4169 C 245.09295,277.56744 241.58832,276.84837 238.75721,276.84836 z M 269.57974,276.84836 C 265.57281,276.84836 263.20975,278.45786 261.58871,281.98545 L 261.58871,277.41915 L 254.16848,277.41915 L 254.16848,304.81695 L 262.1595,304.81695 L 262.1595,290.26187 C 262.1595,288.52656 262.20517,286.98553 263.01568,285.41017 C 263.66629,284.16586 265.03627,283.12703 266.44041,283.12702 C 270.45875,283.12702 269.86514,287.44206 269.86514,290.26187 L 269.86514,304.81695 L 277.85616,304.81695 L 277.85616,287.97872 C 277.85616,285.47878 277.9474,282.05394 276.42919,279.98769 C 274.80797,277.76162 272.18244,276.84837 269.57974,276.84836 z M 294.409,276.84836 C 285.74463,276.84836 280.42471,282.95569 280.42471,291.40344 C 280.42471,299.53146 285.4933,305.38772 293.83822,305.38774 C 300.55068,305.38774 305.74494,301.36927 306.39554,294.54277 L 298.68991,294.25738 C 298.42744,296.80298 296.93189,298.8237 294.12361,298.82368 C 289.55731,298.82368 289.55731,294.20029 289.55731,290.83266 C 289.55731,287.30508 290.01394,282.84165 294.409,282.84163 C 297.27436,282.84163 298.68991,285.47879 298.68991,287.97872 L 306.39554,287.40793 C 305.8591,280.96956 300.80201,276.84837 294.409,276.84836 z M 321.23602,276.84836 C 312.67421,276.84836 308.10791,283.56093 308.10791,291.68884 C 308.10791,299.87404 313.29057,305.38772 321.52142,305.38774 C 330.8479,305.38774 334.07874,297.33974 334.07874,295.96974 L 326.65851,295.39896 C 326.65851,297.94467 324.23837,299.67988 321.80681,299.67986 C 318.33642,299.67986 316.66972,297.2256 316.66972,293.97199 L 316.66972,292.54502 L 334.36414,292.54502 C 334.42122,288.78913 333.79326,284.83926 331.5102,281.70005 C 329.22705,278.56061 325.08322,276.84837 321.23602,276.84836 z M 321.80681,281.98545 C 325.2772,281.98545 326.20188,284.71367 326.37311,287.69332 L 316.66972,287.69332 C 316.9437,284.55387 318.29076,281.98545 321.80681,281.98545 z M 241.89654,291.68884 L 241.89654,292.83041 C 241.89654,294.77097 241.89654,296.51758 240.75497,298.25289 C 239.84171,299.65703 238.39181,300.53603 236.75945,300.53604 C 234.5448,300.53604 233.33473,298.99492 233.33473,296.82593 C 233.33473,292.80746 238.87137,292.0085 241.89654,291.68884 z M 278.71234,315.94731 C 256.64569,315.94731 243.98572,325.11414 235.04709,344.48669 L 234.4763,344.48669 L 234.4763,318.80125 L 193.0942,318.80125 L 193.0942,470.34537 L 237.04485,470.34537 L 237.04485,389.00813 C 237.04485,379.47587 237.42138,370.8458 241.89654,362.18111 C 245.46949,355.32035 252.70735,350.76533 260.44714,350.76536 C 282.5253,350.76536 280.42471,373.49404 280.42471,389.00813 L 280.42471,470.34537 L 324.37535,470.34537 L 324.37535,376.73619 C 324.37535,363.02588 324.45536,343.82456 316.09893,332.50015 C 307.14908,320.27388 293.0277,315.94728 278.71234,315.94731 z M 490.75995,315.94731 C 444.52606,315.94731 418.84071,350.28601 418.84071,394.43061 C 418.84071,438.27863 444.21784,473.48468 490.75995,473.4847 C 535.49819,473.4847 563.82077,439.10042 563.82077,395.85758 C 563.82077,351.11925 538.16957,315.94728 490.75995,315.94731 z M 132.01992,318.80125 L 132.01992,470.34537 L 175.68518,470.34537 L 175.68518,318.80125 L 132.01992,318.80125 z M 491.04534,344.77209 C 501.18253,344.77209 508.30587,348.60775 511.87909,358.47099 C 516.05717,369.80672 516.7307,384.20201 516.73079,396.14297 C 516.73079,414.32827 515.5093,444.0891 490.75995,444.08914 C 465.69078,444.08914 465.93078,407.15918 465.93069,389.86431 C 465.93069,372.54661 467.48341,344.77207 491.04534,344.77209 z"
       id="path5852"
       style="fill:#000000;fill-opacity:1;fill-rule:nonzero;stroke:none" />
  </g>
</svg>

<svg xmlns="http://www.w3.org/2000/svg" viewBox="0 0 602.36 602.36"><path d="m17.717 584.65h475.49v-475.49h-475.49v475.49"/><path d="m109.19 462.07l-21.12 1.712.571 41.667c0 0 25.15 1.336 31.11 1.712 5.936.365 12.09.525 13.984 7.706 2.055 7.785-6.884 13.413-9.989 13.414 9.384 0 7.226 0 14.27 0 5.731-1.05 12.238-7.991 11.416-18.265-1.084-13.585-11.45-16.838-22.546-16.838l3.507-22.19-21.2-8.916m-49.659 39.38c-3.802 4.601-7.603 11.815-5.422 19.692 6.518 22.01 41.473 31.667 56.22 32.25l-1.712-25.685c0 0-23.859 2.991-35.96-9.703-5.126-5.354-4.144-10.811-.285-15.697-4.521-.194-9.806-.731-12.843-.856" fill="#fff"/><path d="m109.16 493.2h475.49v-475.49h-475.49v475.49" fill="#fff200"/><path d="m400.29 262.58c-16.1 0-33.29 6.267-42.524 19.978-7.466 11.324-6.849 27.11-6.849 40.24h-17.694v33.962h17.694v113.59h43.665v-113.59h26.827v-33.962h-26.827v-3.425c0-12.831.251-21.975 14.27-21.975 6.861 0 9.989-.046 16.553.856v-33.676c-9.258-1.792-21.53-1.998-25.11-1.998m-268.27.285v42.24h43.665v-42.24h-43.665m69.921 4.281c-2.922 0-6.02 1.222-7.706 3.71-1.347 2.078-1.142 5.03-1.142 7.42h-3.139v5.993h3.139v20.548h7.991v-20.548h4.852v-5.993h-4.852v-.856c0-2.329.023-3.996 2.569-3.996 1.256 0 1.655.114 2.854.285v-5.993c-1.689-.342-3.927-.571-4.566-.571m20.548 9.703c-3.47-.251-5.183 2.774-5.993 5.708v-5.137h-7.42v27.398h7.991v-10.274c0-4.875.776-10.02 6.849-9.703v-7.706l-1.427-.285m16.267 0c-5.788 0-12.318 1.884-13.13 8.562l7.42.856c0-2.694 2.306-3.995 4.852-3.996 1.199 0 2.432.217 3.139 1.142.811 1.027.856 2.511.856 3.71v.571c-3.345.331-7.706.537-10.845 1.712-3.642 1.347-6.279 4.212-6.279 8.276 0 5.206 3.676 7.706 8.562 7.706 4.121 0 6.576-1.324 8.847-4.566-.046 1.404.251 2.58.571 3.996h7.706c-.434-1.347-.571-2.591-.571-3.996v-12.843c0-3.322.24-6.302-2.569-8.562-2.226-1.849-5.731-2.569-8.562-2.569m30.823 0c-4.01 0-6.37 1.609-7.991 5.137v-4.566h-7.42v27.398h7.991v-14.555c0-1.735.046-3.276.856-4.852.651-1.244 2.02-2.283 3.425-2.283 4.02 0 3.425 4.315 3.425 7.135v14.555h7.991v-16.838c0-2.5.091-5.925-1.427-7.991-1.621-2.226-4.247-3.139-6.849-3.139m24.829 0c-8.664 0-13.984 6.107-13.984 14.555 0 8.128 5.069 13.984 13.414 13.984 6.712 0 11.907-4.02 12.557-10.845l-7.706-.285c-.262 2.546-1.758 4.566-4.566 4.566-4.566 0-4.566-4.623-4.566-7.991 0-3.528.457-7.991 4.852-7.991 2.865 0 4.281 2.637 4.281 5.137l7.706-.571c-.536-6.438-5.594-10.56-11.987-10.56m26.827 0c-8.562 0-13.13 6.713-13.13 14.84 0 8.185 5.183 13.699 13.414 13.699 9.326 0 12.557-8.05 12.557-9.418l-7.42-.571c0 2.546-2.42 4.281-4.852 4.281-3.47 0-5.137-2.454-5.137-5.708v-1.427h17.694c.057-3.756-.571-7.706-2.854-10.845-2.283-3.139-6.427-4.852-10.274-4.852m.571 5.137c3.47 0 4.395 2.728 4.566 5.708h-9.703c.274-3.139 1.621-5.708 5.137-5.708m-79.91 9.703v1.142c0 1.941 0 3.687-1.142 5.422-.913 1.404-2.363 2.283-3.996 2.283-2.215 0-3.425-1.541-3.425-3.71 0-4.02 5.537-4.817 8.562-5.137m36.816 24.26c-22.07 0-34.727 9.167-43.665 28.539h-.571v-25.685h-41.38v151.54h43.951v-81.34c0-9.532.377-18.16 4.852-26.827 3.573-6.861 10.811-11.416 18.551-11.416 22.08 0 19.978 22.729 19.978 38.24v81.34h43.951v-93.61c0-13.71.08-32.912-8.276-44.24-8.95-12.226-23.07-16.553-37.39-16.553m212.05 0c-46.23 0-71.919 34.34-71.919 78.48 0 43.848 25.377 79.05 71.919 79.05 44.738 0 73.06-34.384 73.06-77.63 0-44.738-25.651-79.91-73.06-79.91m-358.74 2.854v151.54h43.665v-151.54h-43.665m359.03 25.971c10.137 0 17.261 3.836 20.834 13.699 4.178 11.336 4.852 25.731 4.852 37.672 0 18.19-1.221 47.946-25.971 47.946-25.07 0-24.829-36.93-24.829-54.22 0-17.318 1.553-45.09 25.11-45.09"/></svg>
